X:15
T:Nordens kvinner
C:Trad. / Jrgen Moe
N:"Femmes du Nord"
O:Norge - Norway - Norvge
Z:<anamnese@laposte.net> -- http://anamnese.fr.st
M:3/4
L:1/8
Q:1/4=115
K:F
c | "F"c>d c2 A>c | "C7"B>B "F"A2 z c | "Bb"B>d "F"d>c c>E | "C7"G2"F"F2 z :| F | "C"E>F G>G "F"A>c |
B>B A2 z F | E>F G>G A>c | B>B A2 c2 | B>B A2 c2 | B>B A2 zc |B>d (d>c) c>E | G2 F2 z |]
